packages/icons/svg/Instruction_Service_PurchaseHelp_Loading_64px.svg

<svg xmlns="http://www.w3.org/2000/svg" viewBox="0 0 64 64"><path d="M57.5 47a1.5 1.5 0 00-1.5 1.5V56H8v-7.5a1.5 1.5 0 00-3 0V57a2 2 0 002 2h50a2 2 0 002-2v-8.5a1.5 1.5 0 00-1.5-1.5zM14 38l6.25 3.57a1.5 1.5 0 001.48-2.61L16 35.63V19.09l15 8.57a2 2 0 002 0l15-8.57v16.54l-5.74 3.28a1.5 1.5 0 001.48 2.61L50 38a2 2 0 001-1.74V16.79a.43.43 0 000-.11 1.47 1.47 0 00-.89-1.55.7.7 0 00-.1-.08L33 5.34a2 2 0 00-2 0l-17 9.71-.1.08a1.47 1.47 0 00-.9 1.55.43.43 0 000 .11v19.42A2 2 0 0014 38zm18-13.23L17.52 16.5l6-3.44L38 21.34zm0-16.54l14.48 8.27L41 19.61l-14.44-8.28z"/><path d="M32 31a1.5 1.5 0 00-1.5 1.5v15.92l-4.76-2.72a1.5 1.5 0 00-1.48 2.6L31 52.16h.1a1.47 1.47 0 001.78 0h.1l6.75-3.86a1.5 1.5 0 10-1.48-2.6l-4.75 2.72V32.5A1.5 1.5 0 0032 31z"/></svg>

<svg xmlns="http://www.w3.org/2000/svg" viewBox="0 0 64 64"><defs></defs><g id="Icon"><path  d="M57.5,47A1.5,1.5,0,0,0,56,48.5V56H8V48.5a1.5,1.5,0,0,0-3,0V57a2,2,0,0,0,2,2H57a2,2,0,0,0,2-2V48.5A1.5,1.5,0,0,0,57.5,47Z"/><path  d="M14,38l6.25,3.57a1.5,1.5,0,0,0,1.48-2.61L16,35.63V19.09l15,8.57a2,2,0,0,0,2,0l15-8.57V35.63l-5.74,3.28a1.5,1.5,0,0,0,1.48,2.61L50,38a2,2,0,0,0,1-1.74V16.79a.43.43,0,0,0,0-.11,1.47,1.47,0,0,0-.89-1.55.7.7,0,0,0-.1-.08L33,5.34a2,2,0,0,0-2,0L14,15.05l-.1.08A1.47,1.47,0,0,0,13,16.68a.43.43,0,0,0,0,.11V36.21A2,2,0,0,0,14,38ZM32,24.77,17.52,16.5l6-3.44L38,21.34ZM32,8.23,46.48,16.5,41,19.61,26.56,11.33Z"/><path  d="M32,31a1.5,1.5,0,0,0-1.5,1.5V48.42L25.74,45.7a1.5,1.5,0,0,0-1.48,2.6L31,52.16l.1,0a1.47,1.47,0,0,0,1.78,0l.1,0,6.75-3.86a1.5,1.5,0,1,0-1.48-2.6L33.5,48.42V32.5A1.5,1.5,0,0,0,32,31Z"/></g></svg>
